X: 39674
T: Tenpenny Bit, The
R: jig
M: 6/8
K: Adorian
|:e|eAA eAA|BAB GBd|eAA eAA|def gfg|
eAA eAA|BAB GBd|edB gBB|ABA A2:|
B|A2a aga|bge dBG|A2a aga|bge g2d|
e2a aga|bge dBd|edB gBB|ABA A2:|

